X:1
T:Title
%%score ( 1 2 ) { 3 | 4 }
L:1/8
Q:1/4=90
M:6/8
K:C
V:1 treble nm="Grand Piano, Soprano"
V:2 treble 
V:3 bass nm="Choir Pad, Beautiful Story to Tell"
V:4 bass 
V:1
 [CE][DF][EG] [FA][EG][CE] | [Ec][GB][FA] .[EG]3 | [EG]>[EG][EG] [Gc][FB][Ec] | [Gd]6 | %4
w: By~S.~A.~Myers * * * * *||||
 [Ge][Fd][Ec] [Ec][DB][Ec] | [Fd][Fc][FA] .[FA]3 | [EG]>[Ec][Ec] [DB][Ec][Fd] | [Ec]6 | %8
w: ||||
 [Ge][Ge][Ge] [Ec][Ec][Ec] | [Fd]2 [Fc] .[FA]3 | [FA][FA][FA] [^Fd][FA][Fc] | B3- [FB]3 | %12
w: ||||
 [EG][EG][EG] [Ec][Fd][Ge] | [Af]3 [FA]3 | [EG]2 [EG] [FB][FA][FB] | [Ec]6- | [Ec]3 z3 |] %17
w: |||||
V:2
 x6 | x6 | x6 | x6 | x6 | x6 | x6 | x6 | x6 | x6 | x6 | G3 z3 | x6 | x6 | x6 | x6 | x6 |] %17
V:3
 z6 | z6 | C>CC G,G,G, | B,6 | z6 | z6 | C>G,G, G,G,G, | G,6 | C3 G,2 G, | A,A,A,[K:treble] C2 C | %10
 D3 D2 D | DDD .D3 | C3 G,2 C | CCC C2 C | C2 C[K:bass] G,G,G, | G,6- | G,3 z3 |] %17
V:4
 z6 | z6 | C,>C,C, E,D,C, | [G,,G,]6 | z6 | z6 | .G,3 z3 | C,6 | C,3 C,2 C, | F,F,F, F,2 F, | %10
 D,3 D,2 D, | G,G,G, .G,3 | C,3 C,2 C, | F,F,F, F,2 F, | G,2 G, G,,G,,G,, | C,6- | C,3 z3 |] %17

